.cache/img/_logos/logo-bone-of-contention.svg

<svg xmlns="http://www.w3.org/2000/svg" width="200" height="90" viewBox="0 0 200 90"><path d="M52 13.08V9.42A9.45 9.45 0 0 0 42.59 0H11.64v44.48h31A9.56 9.56 0 0 0 52 34.93v-3.66a9.46 9.46 0 0 0-7-9.1 9.44 9.44 0 0 0 7-9.09zM39.53 32.52a2.09 2.09 0 0 1-2.09 2.08H24.21v-7.13h13.23a2.1 2.1 0 0 1 2.09 2.09zm0-17.42a2.09 2.09 0 0 1-2.09 2.08H24.21v-7.13h13.23a2.1 2.1 0 0 1 2.09 2.09zM110.59 0h12.15l15.48 24.07V0h12.55v44.6h-12.23L123 20.59v24h-12.41zm49.48 0h34.73v10.16h-22.14v7h16.56v10.47h-16.66v6.81h22.24V44.6h-34.73zM97.4 59.8h-7.2a3.59 3.59 0 0 0-3.58 3.58v4.41a3.59 3.59 0 0 0 3.58 3.58h7.2a3.59 3.59 0 0 0 3.6-3.58v-4.41a3.59 3.59 0 0 0-3.6-3.58zm-1.48 8.35h-4.38v-5h4.38zm-58.86 5.9h-9.75a4.86 4.86 0 0 0-4.85 4.85v6a4.87 4.87 0 0 0 4.85 4.86h9.75a4.88 4.88 0 0 0 4.86-4.86v-6a4.87 4.87 0 0 0-4.86-4.85zm-2 11.3h-5.93v-6.77h5.93zm67.23-25.55H115v3.35h-7.54V64h5.62v3.15h-5.75v4.25h-5.07zM19.79 84v1A4.79 4.79 0 0 1 15 89.73H4.77A4.79 4.79 0 0 1 0 85v-6.18a4.78 4.78 0 0 1 4.77-4.77H15a4.78 4.78 0 0 1 4.77 4.77v.67h-6.66V78.1H6.88v7.37h6.43V84zM91.21 0H71a9.92 9.92 0 0 0-9.89 9.9v24.55a9.93 9.93 0 0 0 9.89 9.9h20.21a9.94 9.94 0 0 0 9.9-9.9V9.9a9.93 9.93 0 0 0-9.9-9.9zm-2.34 33.44a1.16 1.16 0 0 1-1.16 1.16H74.52a1.16 1.16 0 0 1-1.16-1.16V11.22a1.17 1.17 0 0 1 1.16-1.17h13.19a1.17 1.17 0 0 1 1.16 1.17zm-44 40.61h6.77l6.38 7.53v-7.53h6.47v15.68h-6.2l-6.82-7.84v7.84h-6.6zm127.62 0h-9.75a4.86 4.86 0 0 0-4.85 4.85v6a4.87 4.87 0 0 0 4.85 4.86h9.75a4.87 4.87 0 0 0 4.85-4.86v-6a4.86 4.86 0 0 0-4.81-4.85zm-2 11.3h-5.94v-6.77h5.94zm9.85-11.3h6.77l6.38 7.53v-7.53H200v15.68h-6.2l-6.8-7.84v7.84h-6.6zm-96 4h-5.11v11.53h-6.91V78.06h-5.11v-4h17.16zm22.36-4h6.77l6.38 7.53v-7.53h6.47v15.68h-6.21l-6.81-7.84v7.84h-6.6zm39.46 4H141v11.53h-6.91V78.06H129v-4h17.16zm-59.27-4h17v4H93.52v1.8h8.1v3.92h-7.89v1.85h10.44v4H86.92zm61.77-.17h6.65V89.5h-6.65z" fill="#fff"/></svg>

<svg xmlns="http://www.w3.org/2000/svg" width="200" height="90" viewBox="0 0 200 90"><path d="M52,13.08V9.42A9.45,9.45,0,0,0,42.59,0H11.64V44.48h31A9.56,9.56,0,0,0,52,34.93V31.27a9.46,9.46,0,0,0-7-9.1A9.44,9.44,0,0,0,52,13.08ZM39.53,32.52a2.09,2.09,0,0,1-2.09,2.08H24.21V27.47H37.44a2.1,2.1,0,0,1,2.09,2.09Zm0-17.42a2.09,2.09,0,0,1-2.09,2.08H24.21V10.05H37.44a2.1,2.1,0,0,1,2.09,2.09ZM110.59,0h12.15l15.48,24.07V0h12.55V44.6H138.54L123,20.59v24H110.59Zm49.48,0H194.8V10.16H172.66v7h16.56V27.63H172.56v6.81H194.8V44.6H160.07ZM97.4,59.8H90.2a3.59,3.59,0,0,0-3.58,3.58v4.41a3.59,3.59,0,0,0,3.58,3.58h7.2A3.59,3.59,0,0,0,101,67.79V63.38A3.59,3.59,0,0,0,97.4,59.8Zm-1.48,8.35H91.54v-5h4.38Zm-58.86,5.9H27.31a4.86,4.86,0,0,0-4.85,4.85v6a4.87,4.87,0,0,0,4.85,4.86h9.75a4.88,4.88,0,0,0,4.86-4.86v-6A4.87,4.87,0,0,0,37.06,74.05Zm-2,11.3H29.13V78.58h5.93ZM102.29,59.8H115v3.35h-7.54V64h5.62v3.15h-5.75v4.25h-5.07ZM19.79,84v1A4.79,4.79,0,0,1,15,89.73H4.77A4.79,4.79,0,0,1,0,85V78.82a4.78,4.78,0,0,1,4.77-4.77H15a4.78,4.78,0,0,1,4.77,4.77v.67H13.11V78.1H6.88v7.37h6.43V84ZM91.21,0H71a9.92,9.92,0,0,0-9.89,9.9V34.45A9.93,9.93,0,0,0,71,44.35H91.21a9.94,9.94,0,0,0,9.9-9.9V9.9A9.93,9.93,0,0,0,91.21,0ZM88.87,33.44a1.16,1.16,0,0,1-1.16,1.16H74.52a1.16,1.16,0,0,1-1.16-1.16V11.22a1.17,1.17,0,0,1,1.16-1.17H87.71a1.17,1.17,0,0,1,1.16,1.17Zm-44,40.61h6.77l6.38,7.53V74.05h6.47V89.73h-6.2l-6.82-7.84v7.84h-6.6Zm127.62,0h-9.75a4.86,4.86,0,0,0-4.85,4.85v6a4.87,4.87,0,0,0,4.85,4.86h9.75a4.87,4.87,0,0,0,4.85-4.86v-6A4.86,4.86,0,0,0,172.53,74.05Zm-2,11.3h-5.94V78.58h5.94Zm9.85-11.3h6.77l6.38,7.53V74.05H200V89.73h-6.2L187,81.89v7.84h-6.6Zm-96,4H79.23V89.58H72.32V78.06H67.21v-4H84.37Zm22.36-4h6.77l6.38,7.53V74.05h6.47V89.73h-6.21l-6.81-7.84v7.84h-6.6Zm39.46,4H141V89.58h-6.91V78.06H129v-4h17.16Zm-59.27-4h17v4H93.52v1.8h8.1v3.92H93.73v1.85h10.44v4H86.92Zm61.77-.17h6.65V89.5h-6.65Z" fill="#fff"/></svg>
